producthuntturkey/static/images/svg/twitter_en.svg

<svg width="156" height="55" viewBox="0 0 156 55" fill="none" xmlns="http://www.w3.org/2000/svg">
<path d="M149.124 1H6.8755C3.63055 1 1 5.25329 1 10.5V44.5C1 49.7467 3.63055 54 6.8755 54H149.124C152.369 54 155 49.7467 155 44.5V10.5C155 5.25329 152.369 1 149.124 1Z" fill="#FFFFFC" stroke="black"/>
<path d="M67.287 22.072C66.891 22.072 66.693 21.868 66.693 21.46V16.267C66.693 15.859 66.897 15.655 67.305 15.655H70.446C70.758 15.655 70.914 15.805 70.914 16.105C70.914 16.417 70.758 16.573 70.446 16.573H67.845V18.364H70.257C70.569 18.364 70.725 18.514 70.725 18.814C70.725 19.126 70.569 19.282 70.257 19.282H67.845V21.46C67.845 21.868 67.659 22.072 67.287 22.072ZM74.4765 22.09C73.8645 22.09 73.3275 21.955 72.8655 21.685C72.4095 21.415 72.0555 21.037 71.8035 20.551C71.5515 20.059 71.4255 19.483 71.4255 18.823C71.4255 18.157 71.5515 17.581 71.8035 17.095C72.0555 16.609 72.4095 16.234 72.8655 15.97C73.3215 15.7 73.8585 15.565 74.4765 15.565C75.0945 15.565 75.6315 15.7 76.0875 15.97C76.5435 16.234 76.8975 16.609 77.1495 17.095C77.4015 17.581 77.5275 18.154 77.5275 18.814C77.5275 19.48 77.4015 20.059 77.1495 20.551C76.8975 21.037 76.5435 21.415 76.0875 21.685C75.6315 21.955 75.0945 22.09 74.4765 22.09ZM74.4765 21.1C75.0585 21.1 75.5115 20.899 75.8355 20.497C76.1595 20.095 76.3215 19.537 76.3215 18.823C76.3215 18.103 76.1595 17.545 75.8355 17.149C75.5175 16.753 75.0645 16.555 74.4765 16.555C73.8945 16.555 73.4415 16.753 73.1175 17.149C72.7935 17.545 72.6315 18.103 72.6315 18.823C72.6315 19.537 72.7935 20.095 73.1175 20.497C73.4415 20.899 73.8945 21.1 74.4765 21.1ZM79.2839 22C78.8939 22 78.6989 21.802 78.6989 21.406V16.213C78.6989 15.823 78.8909 15.628 79.2749 15.628C79.6589 15.628 79.8509 15.823 79.8509 16.213V21.019H82.4609C82.7969 21.019 82.9649 21.181 82.9649 21.505C82.9649 21.835 82.7969 22 82.4609 22H79.2839ZM84.3376 22C83.9476 22 83.7526 21.802 83.7526 21.406V16.213C83.7526 15.823 83.9446 15.628 84.3286 15.628C84.7126 15.628 84.9046 15.823 84.9046 16.213V21.019H87.5146C87.8506 21.019 88.0186 21.181 88.0186 21.505C88.0186 21.835 87.8506 22 87.5146 22H84.3376ZM91.3075 22.09C90.6955 22.09 90.1585 21.955 89.6965 21.685C89.2405 21.415 88.8865 21.037 88.6345 20.551C88.3825 20.059 88.2565 19.483 88.2565 18.823C88.2565 18.157 88.3825 17.581 88.6345 17.095C88.8865 16.609 89.2405 16.234 89.6965 15.97C90.1525 15.7 90.6895 15.565 91.3075 15.565C91.9255 15.565 92.4625 15.7 92.9185 15.97C93.3745 16.234 93.7285 16.609 93.9805 17.095C94.2325 17.581 94.3585 18.154 94.3585 18.814C94.3585 19.48 94.2325 20.059 93.9805 20.551C93.7285 21.037 93.3745 21.415 92.9185 21.685C92.4625 21.955 91.9255 22.09 91.3075 22.09ZM91.3075 21.1C91.8895 21.1 92.3425 20.899 92.6665 20.497C92.9905 20.095 93.1525 19.537 93.1525 18.823C93.1525 18.103 92.9905 17.545 92.6665 17.149C92.3485 16.753 91.8955 16.555 91.3075 16.555C90.7255 16.555 90.2725 16.753 89.9485 17.149C89.6245 17.545 89.4625 18.103 89.4625 18.823C89.4625 19.537 89.6245 20.095 89.9485 20.497C90.2725 20.899 90.7255 21.1 91.3075 21.1ZM97.6037 22.072C97.2977 22.072 97.0877 21.91 96.9737 21.586L95.0927 16.267C95.0267 16.075 95.0387 15.913 95.1287 15.781C95.2247 15.649 95.3837 15.583 95.6057 15.583C95.7677 15.583 95.8937 15.622 95.9837 15.7C96.0737 15.772 96.1457 15.889 96.1997 16.051L97.6397 20.335L99.1517 16.06C99.2657 15.742 99.4577 15.583 99.7277 15.583C99.8717 15.583 99.9857 15.622 100.07 15.7C100.154 15.778 100.226 15.901 100.286 16.069L101.771 20.398L103.256 16.051C103.31 15.895 103.382 15.778 103.472 15.7C103.562 15.622 103.685 15.583 103.841 15.583C104.033 15.583 104.174 15.649 104.264 15.781C104.354 15.913 104.366 16.075 104.3 16.267L102.401 21.595C102.341 21.757 102.263 21.877 102.167 21.955C102.071 22.033 101.942 22.072 101.78 22.072C101.618 22.072 101.489 22.033 101.393 21.955C101.297 21.877 101.219 21.754 101.159 21.586L99.6917 17.419L98.2157 21.595C98.1557 21.757 98.0777 21.877 97.9817 21.955C97.8917 22.033 97.7657 22.072 97.6037 22.072ZM110.472 22.09C109.602 22.09 108.936 21.865 108.474 21.415C108.018 20.959 107.79 20.287 107.79 19.399V16.168C107.79 15.778 107.982 15.583 108.366 15.583C108.75 15.583 108.942 15.778 108.942 16.168V19.39C108.942 19.96 109.071 20.389 109.329 20.677C109.593 20.959 109.974 21.1 110.472 21.1C111.486 21.1 111.993 20.53 111.993 19.39V16.168C111.993 15.778 112.185 15.583 112.569 15.583C112.947 15.583 113.136 15.778 113.136 16.168V19.399C113.136 20.287 112.911 20.959 112.461 21.415C112.011 21.865 111.348 22.09 110.472 22.09ZM116.666 22.09C116.264 22.09 115.871 22.045 115.487 21.955C115.109 21.865 114.779 21.73 114.497 21.55C114.359 21.46 114.275 21.349 114.245 21.217C114.215 21.085 114.224 20.962 114.272 20.848C114.326 20.728 114.407 20.647 114.515 20.605C114.629 20.557 114.758 20.578 114.902 20.668C115.166 20.824 115.445 20.938 115.739 21.01C116.033 21.082 116.342 21.118 116.666 21.118C117.14 21.118 117.485 21.04 117.701 20.884C117.917 20.722 118.025 20.515 118.025 20.263C118.025 20.053 117.947 19.888 117.791 19.768C117.641 19.648 117.38 19.549 117.008 19.471L116.018 19.264C114.89 19.024 114.326 18.445 114.326 17.527C114.326 17.131 114.431 16.786 114.641 16.492C114.851 16.198 115.142 15.97 115.514 15.808C115.886 15.646 116.315 15.565 116.801 15.565C117.161 15.565 117.503 15.61 117.827 15.7C118.151 15.79 118.442 15.922 118.7 16.096C118.82 16.18 118.892 16.285 118.916 16.411C118.94 16.531 118.925 16.645 118.871 16.753C118.817 16.855 118.73 16.927 118.61 16.969C118.496 17.005 118.361 16.978 118.205 16.888C117.983 16.762 117.758 16.672 117.53 16.618C117.302 16.564 117.056 16.537 116.792 16.537C116.378 16.537 116.054 16.624 115.82 16.798C115.586 16.972 115.469 17.2 115.469 17.482C115.469 17.698 115.541 17.872 115.685 18.004C115.829 18.13 116.075 18.229 116.423 18.301L117.404 18.508C117.998 18.634 118.439 18.832 118.727 19.102C119.021 19.372 119.168 19.732 119.168 20.182C119.168 20.56 119.066 20.893 118.862 21.181C118.658 21.469 118.367 21.694 117.989 21.856C117.617 22.012 117.176 22.09 116.666 22.09ZM125.444 22.09C124.832 22.09 124.295 21.955 123.833 21.685C123.377 21.415 123.023 21.037 122.771 20.551C122.519 20.059 122.393 19.483 122.393 18.823C122.393 18.157 122.519 17.581 122.771 17.095C123.023 16.609 123.377 16.234 123.833 15.97C124.289 15.7 124.826 15.565 125.444 15.565C126.062 15.565 126.599 15.7 127.055 15.97C127.511 16.234 127.865 16.609 128.117 17.095C128.369 17.581 128.495 18.154 128.495 18.814C128.495 19.48 128.369 20.059 128.117 20.551C127.865 21.037 127.511 21.415 127.055 21.685C126.599 21.955 126.062 22.09 125.444 22.09ZM125.444 21.1C126.026 21.1 126.479 20.899 126.803 20.497C127.127 20.095 127.289 19.537 127.289 18.823C127.289 18.103 127.127 17.545 126.803 17.149C126.485 16.753 126.032 16.555 125.444 16.555C124.862 16.555 124.409 16.753 124.085 17.149C123.761 17.545 123.599 18.103 123.599 18.823C123.599 19.537 123.761 20.095 124.085 20.497C124.409 20.899 124.862 21.1 125.444 21.1ZM130.207 22.072C129.847 22.072 129.667 21.886 129.667 21.514V16.159C129.667 15.973 129.712 15.832 129.802 15.736C129.898 15.634 130.021 15.583 130.171 15.583C130.309 15.583 130.411 15.61 130.477 15.664C130.549 15.712 130.633 15.796 130.729 15.916L133.942 20.083V16.132C133.942 15.766 134.122 15.583 134.482 15.583C134.836 15.583 135.013 15.766 135.013 16.132V21.532C135.013 21.7 134.971 21.832 134.887 21.928C134.803 22.024 134.689 22.072 134.545 22.072C134.407 22.072 134.296 22.045 134.212 21.991C134.134 21.937 134.047 21.85 133.951 21.73L130.738 17.554V21.514C130.738 21.886 130.561 22.072 130.207 22.072Z" fill="black"/>
<path d="M71.706 41.162C71.25 41.162 70.902 41.036 70.662 40.784C70.422 40.532 70.302 40.178 70.302 39.722V30.614H67.116C66.336 30.614 65.946 30.23 65.946 29.462C65.946 28.694 66.336 28.31 67.116 28.31H76.278C77.058 28.31 77.448 28.694 77.448 29.462C77.448 30.23 77.058 30.614 76.278 30.614H73.092V39.722C73.092 40.178 72.972 40.532 72.732 40.784C72.504 41.036 72.162 41.162 71.706 41.162ZM82.2844 41.162C81.5524 41.162 81.0424 40.796 80.7544 40.064L78.2164 33.782C78.0244 33.29 78.0244 32.876 78.2164 32.54C78.4204 32.192 78.7984 32.018 79.3504 32.018C79.6624 32.018 79.9144 32.096 80.1064 32.252C80.3104 32.396 80.4904 32.678 80.6464 33.098L82.4104 37.832L84.2644 32.864C84.4684 32.3 84.8524 32.018 85.4164 32.018C85.9804 32.018 86.3704 32.3 86.5864 32.864L88.4224 37.904L90.2224 33.026C90.3664 32.642 90.5464 32.378 90.7624 32.234C90.9904 32.09 91.2424 32.018 91.5184 32.018C92.0344 32.018 92.3704 32.198 92.5264 32.558C92.6824 32.918 92.6644 33.326 92.4724 33.782L89.9524 40.064C89.6644 40.796 89.1544 41.162 88.4224 41.162C87.6904 41.162 87.1804 40.796 86.8924 40.064L85.3264 35.978L83.7964 40.046C83.5204 40.79 83.0164 41.162 82.2844 41.162ZM97.1403 30.542C96.6363 30.542 96.2463 30.428 95.9703 30.2C95.7063 29.96 95.5743 29.624 95.5743 29.192C95.5743 28.748 95.7063 28.412 95.9703 28.184C96.2463 27.944 96.6363 27.824 97.1403 27.824C98.1723 27.824 98.6883 28.28 98.6883 29.192C98.6883 30.092 98.1723 30.542 97.1403 30.542ZM97.1403 41.144C96.6963 41.144 96.3543 41.018 96.1143 40.766C95.8863 40.502 95.7723 40.136 95.7723 39.668V33.512C95.7723 32.516 96.2283 32.018 97.1403 32.018C97.5723 32.018 97.9023 32.15 98.1303 32.414C98.3703 32.666 98.4903 33.032 98.4903 33.512V39.668C98.4903 40.136 98.3763 40.502 98.1483 40.766C97.9203 41.018 97.5843 41.144 97.1403 41.144ZM106.547 41.198C104.063 41.198 102.821 39.992 102.821 37.58V34.196H102.065C101.357 34.196 101.003 33.86 101.003 33.188C101.003 32.504 101.357 32.162 102.065 32.162H102.821V30.794C102.821 29.87 103.277 29.408 104.189 29.408C105.089 29.408 105.539 29.87 105.539 30.794V32.162H107.249C107.945 32.162 108.293 32.504 108.293 33.188C108.293 33.86 107.945 34.196 107.249 34.196H105.539V37.472C105.539 37.976 105.653 38.354 105.881 38.606C106.121 38.858 106.499 38.984 107.015 38.984C107.195 38.984 107.363 38.966 107.519 38.93C107.675 38.894 107.819 38.87 107.951 38.858C108.119 38.846 108.257 38.9 108.365 39.02C108.473 39.14 108.527 39.386 108.527 39.758C108.527 40.058 108.479 40.316 108.383 40.532C108.287 40.736 108.119 40.886 107.879 40.982C107.723 41.042 107.507 41.09 107.231 41.126C106.967 41.174 106.739 41.198 106.547 41.198ZM114.794 41.198C112.31 41.198 111.068 39.992 111.068 37.58V34.196H110.312C109.604 34.196 109.25 33.86 109.25 33.188C109.25 32.504 109.604 32.162 110.312 32.162H111.068V30.794C111.068 29.87 111.524 29.408 112.436 29.408C113.336 29.408 113.786 29.87 113.786 30.794V32.162H115.496C116.192 32.162 116.54 32.504 116.54 33.188C116.54 33.86 116.192 34.196 115.496 34.196H113.786V37.472C113.786 37.976 113.9 38.354 114.128 38.606C114.368 38.858 114.746 38.984 115.262 38.984C115.442 38.984 115.61 38.966 115.766 38.93C115.922 38.894 116.066 38.87 116.198 38.858C116.366 38.846 116.504 38.9 116.612 39.02C116.72 39.14 116.774 39.386 116.774 39.758C116.774 40.058 116.726 40.316 116.63 40.532C116.534 40.736 116.366 40.886 116.126 40.982C115.97 41.042 115.754 41.09 115.478 41.126C115.214 41.174 114.986 41.198 114.794 41.198ZM123.855 41.198C122.811 41.198 121.911 41.012 121.155 40.64C120.411 40.256 119.835 39.722 119.427 39.038C119.031 38.342 118.833 37.526 118.833 36.59C118.833 35.678 119.025 34.88 119.409 34.196C119.805 33.5 120.339 32.96 121.011 32.576C121.695 32.18 122.481 31.982 123.369 31.982C124.653 31.982 125.673 32.39 126.429 33.206C127.185 34.01 127.563 35.102 127.563 36.482C127.563 36.938 127.281 37.166 126.717 37.166H121.425C121.521 37.862 121.773 38.372 122.181 38.696C122.601 39.008 123.177 39.164 123.909 39.164C124.197 39.164 124.521 39.134 124.881 39.074C125.253 39.002 125.607 38.882 125.943 38.714C126.291 38.546 126.585 38.516 126.825 38.624C127.065 38.72 127.227 38.888 127.311 39.128C127.407 39.368 127.407 39.62 127.311 39.884C127.227 40.136 127.029 40.346 126.717 40.514C126.297 40.742 125.829 40.91 125.313 41.018C124.809 41.138 124.323 41.198 123.855 41.198ZM123.477 33.782C122.901 33.782 122.433 33.956 122.073 34.304C121.725 34.652 121.509 35.138 121.425 35.762H125.313C125.241 34.442 124.629 33.782 123.477 33.782ZM132.168 41.162C131.232 41.162 130.764 40.7 130.764 39.776V33.386C130.764 32.474 131.208 32.018 132.096 32.018C132.984 32.018 133.428 32.474 133.428 33.386V33.71C133.86 32.642 134.754 32.066 136.11 31.982C136.41 31.958 136.638 32.036 136.794 32.216C136.962 32.384 137.052 32.666 137.064 33.062C137.088 33.434 137.01 33.728 136.83 33.944C136.662 34.16 136.374 34.292 135.966 34.34L135.552 34.376C134.208 34.508 133.536 35.192 133.536 36.428V39.776C133.536 40.7 133.08 41.162 132.168 41.162Z" fill="black"/>
<g clip-path="url(#clip0_242_91)">
<path d="M51 16.6456C49.7123 17.2173 48.3283 17.6023 46.8758 17.7758C48.359 16.8877 49.4979 15.4804 50.0331 13.8033C48.6463 14.6258 47.1092 15.2237 45.4729 15.546C44.1648 14.1504 42.2967 13.2783 40.2317 13.2783C35.5956 13.2783 32.189 17.6037 33.236 22.0939C27.27 21.795 21.9792 18.9367 18.4369 14.5923C16.5556 17.8196 17.4613 22.0414 20.6579 24.1794C19.4825 24.1414 18.3742 23.8192 17.4073 23.281C17.3285 26.6075 19.7129 29.7196 23.1663 30.4123C22.1556 30.6864 21.0488 30.7506 19.9229 30.5348C20.8358 33.3873 23.4871 35.4625 26.6313 35.5208C23.6125 37.8877 19.8092 38.945 16 38.4958C19.1777 40.5331 22.9533 41.7217 27.0075 41.7217C40.3396 41.7217 47.8719 30.4619 47.4169 20.3629C48.8198 19.3494 50.0375 18.085 51 16.6456V16.6456Z" fill="black"/>
</g>
<defs>
<clipPath id="clip0_242_91">
<rect width="35" height="35" fill="white" transform="translate(16 10)"/>
</clipPath>
</defs>
</svg>

<svg xmlns="http://www.w3.org/2000/svg" width="156" height="55" fill="none" xmlns:v="https://vecta.io/nano"><path d="M149.124 1H6.876C3.631 1 1 5.253 1 10.5v34C1 49.747 3.631 54 6.876 54h142.249c3.245 0 5.876-4.253 5.876-9.5v-34c0-5.247-2.631-9.5-5.876-9.5z" fill="#fffffc" stroke="#000"/><path d="M67.287 22.072c-.396 0-.594-.204-.594-.612v-5.193c0-.408.204-.612.612-.612h3.141c.312 0 .468.15.468.45 0 .312-.156.468-.468.468h-2.601v1.791h2.412c.312 0 .468.15.468.45 0 .312-.156.468-.468.468h-2.412v2.178c0 .408-.186.612-.558.612zm7.189.018c-.612 0-1.149-.135-1.611-.405-.456-.27-.81-.648-1.062-1.134-.252-.492-.378-1.068-.378-1.728 0-.666.126-1.242.378-1.728a2.71 2.71 0 0 1 1.062-1.125c.456-.27.993-.405 1.611-.405s1.155.135 1.611.405a2.71 2.71 0 0 1 1.062 1.125c.252.486.378 1.059.378 1.719 0 .666-.126 1.245-.378 1.737-.252.486-.606.864-1.062 1.134s-.993.405-1.611.405zm0-.99c.582 0 1.035-.201 1.359-.603s.486-.96.486-1.674c0-.72-.162-1.278-.486-1.674-.318-.396-.771-.594-1.359-.594-.582 0-1.035.198-1.359.594s-.486.954-.486 1.674c0 .714.162 1.272.486 1.674s.777.603 1.359.603zm4.807.9c-.39 0-.585-.198-.585-.594v-5.193c0-.39.192-.585.576-.585s.576.195.576.585v4.806h2.61c.336 0 .504.162.504.486 0 .33-.168.495-.504.495h-3.177zm5.054 0c-.39 0-.585-.198-.585-.594v-5.193c0-.39.192-.585.576-.585s.576.195.576.585v4.806h2.61c.336 0 .504.162.504.486 0 .33-.168.495-.504.495h-3.177zm6.97.09c-.612 0-1.149-.135-1.611-.405-.456-.27-.81-.648-1.062-1.134-.252-.492-.378-1.068-.378-1.728 0-.666.126-1.242.378-1.728a2.71 2.71 0 0 1 1.062-1.125c.456-.27.993-.405 1.611-.405s1.155.135 1.611.405a2.71 2.71 0 0 1 1.062 1.125c.252.486.378 1.059.378 1.719 0 .666-.126 1.245-.378 1.737-.252.486-.606.864-1.062 1.134s-.993.405-1.611.405zm0-.99c.582 0 1.035-.201 1.359-.603s.486-.96.486-1.674c0-.72-.162-1.278-.486-1.674-.318-.396-.771-.594-1.359-.594-.582 0-1.035.198-1.359.594s-.486.954-.486 1.674c0 .714.162 1.272.486 1.674s.777.603 1.359.603zm6.296.972c-.306 0-.516-.162-.63-.486l-1.881-5.319c-.066-.192-.054-.354.036-.486.096-.132.255-.198.477-.198.162 0 .288.039.378.117.09.072.162.189.216.351l1.44 4.284 1.512-4.275c.114-.318.306-.477.576-.477.144 0 .258.039.342.117s.156.201.216.369l1.485 4.329 1.485-4.347c.054-.156.126-.273.216-.351s.213-.117.369-.117c.192 0 .333.066.423.198s.102.294.036.486l-1.899 5.328c-.06.162-.138.282-.234.36s-.225.117-.387.117-.291-.039-.387-.117-.174-.201-.234-.369l-1.467-4.167-1.476 4.176c-.06.162-.138.282-.234.36-.09.078-.216.117-.378.117zm12.868.018c-.87 0-1.536-.225-1.998-.675-.456-.456-.684-1.128-.684-2.016v-3.231c0-.39.192-.585.576-.585s.576.195.576.585v3.222c0 .57.129.999.387 1.287.264.282.645.423 1.143.423 1.014 0 1.521-.57 1.521-1.71v-3.222c0-.39.192-.585.576-.585.378 0 .567.195.567.585v3.231c0 .888-.225 1.56-.675 2.016-.45.45-1.113.675-1.989.675zm6.194 0a5.15 5.15 0 0 1-1.179-.135c-.378-.09-.708-.225-.99-.405a.54.54 0 0 1-.252-.333.59.59 0 0 1 .027-.369c.054-.12.135-.201.243-.243.114-.048.243-.027.387.063.264.156.543.27.837.342s.603.108.927.108c.474 0 .819-.078 1.035-.234.216-.162.324-.369.324-.621a.59.59 0 0 0-.234-.495c-.15-.12-.411-.219-.783-.297l-.99-.207c-1.128-.24-1.692-.819-1.692-1.737 0-.396.105-.741.315-1.035s.501-.522.873-.684.801-.243 1.287-.243c.36 0 .702.045 1.026.135a2.97 2.97 0 0 1 .873.396.49.49 0 0 1 .216.315c.024.12.009.234-.045.342a.45.45 0 0 1-.261.216c-.114.036-.249.009-.405-.081a2.56 2.56 0 0 0-.675-.27c-.228-.054-.474-.081-.738-.081-.414 0-.738.087-.972.261s-.351.402-.351.684c0 .216.072.39.216.522.144.126.39.225.738.297l.981.207c.594.126 1.035.324 1.323.594.294.27.441.63.441 1.08 0 .378-.102.711-.306.999s-.495.513-.873.675c-.372.156-.813.234-1.323.234zm8.778 0c-.612 0-1.149-.135-1.611-.405-.456-.27-.81-.648-1.062-1.134-.252-.492-.378-1.068-.378-1.728 0-.666.126-1.242.378-1.728a2.71 2.71 0 0 1 1.062-1.125c.456-.27.993-.405 1.611-.405s1.155.135 1.611.405a2.71 2.71 0 0 1 1.062 1.125c.252.486.378 1.059.378 1.719 0 .666-.126 1.245-.378 1.737-.252.486-.606.864-1.062 1.134s-.993.405-1.611.405zm0-.99c.582 0 1.035-.201 1.359-.603s.486-.96.486-1.674c0-.72-.162-1.278-.486-1.674-.318-.396-.771-.594-1.359-.594-.582 0-1.035.198-1.359.594s-.486.954-.486 1.674c0 .714.162 1.272.486 1.674s.777.603 1.359.603zm4.763.972c-.36 0-.54-.186-.54-.558v-5.355c0-.186.045-.327.135-.423.096-.102.219-.153.369-.153.138 0 .24.027.306.081.072.048.156.132.252.252l3.213 4.167v-3.951c0-.366.18-.549.54-.549.354 0 .531.183.531.549v5.4c0 .168-.042.3-.126.396a.43.43 0 0 1-.342.144c-.138 0-.249-.027-.333-.081-.078-.054-.165-.141-.261-.261l-3.213-4.176v3.96c0 .372-.177.558-.531.558zm-58.5 19.09c-.456 0-.804-.126-1.044-.378s-.36-.606-.36-1.062v-9.108h-3.186c-.78 0-1.17-.384-1.17-1.152s.39-1.152 1.17-1.152h9.162c.78 0 1.17.384 1.17 1.152s-.39 1.152-1.17 1.152h-3.186v9.108c0 .456-.12.81-.36 1.062-.228.252-.57.378-1.026.378zm10.578 0c-.732 0-1.242-.366-1.53-1.098l-2.538-6.282c-.192-.492-.192-.906 0-1.242.204-.348.582-.522 1.134-.522.312 0 .564.078.756.234.204.144.384.426.54.846l1.764 4.734 1.854-4.968c.204-.564.588-.846 1.152-.846s.954.282 1.17.846l1.836 5.04 1.8-4.878c.144-.384.324-.648.54-.792.228-.144.48-.216.756-.216.516 0 .852.18 1.008.54s.138.768-.054 1.224l-2.52 6.282c-.288.732-.798 1.098-1.53 1.098s-1.242-.366-1.53-1.098l-1.566-4.086-1.53 4.068c-.276.744-.78 1.116-1.512 1.116zm14.856-10.62c-.504 0-.894-.114-1.17-.342-.264-.24-.396-.576-.396-1.008 0-.444.132-.78.396-1.008.276-.24.666-.36 1.17-.36 1.032 0 1.548.456 1.548 1.368 0 .9-.516 1.35-1.548 1.35zm0 10.602c-.444 0-.786-.126-1.026-.378-.228-.264-.342-.63-.342-1.098v-6.156c0-.996.456-1.494 1.368-1.494.432 0 .762.132.99.396.24.252.36.618.36 1.098v6.156c0 .468-.114.834-.342 1.098-.228.252-.564.378-1.008.378zm9.407.054c-2.484 0-3.726-1.206-3.726-3.618v-3.384h-.756c-.708 0-1.062-.336-1.062-1.008 0-.684.354-1.026 1.062-1.026h.756v-1.368c0-.924.456-1.386 1.368-1.386.9 0 1.35.462 1.35 1.386v1.368h1.71c.696 0 1.044.342 1.044 1.026 0 .672-.348 1.008-1.044 1.008h-1.71v3.276c0 .504.114.882.342 1.134.24.252.618.378 1.134.378a2.24 2.24 0 0 0 .504-.054c.156-.036.3-.06.432-.072a.48.48 0 0 1 .414.162c.108.12.162.366.162.738 0 .3-.048.558-.144.774-.096.204-.264.354-.504.45-.156.06-.372.108-.648.144-.264.048-.492.072-.684.072zm8.247 0c-2.484 0-3.726-1.206-3.726-3.618v-3.384h-.756c-.708 0-1.062-.336-1.062-1.008 0-.684.354-1.026 1.062-1.026h.756v-1.368c0-.924.456-1.386 1.368-1.386.9 0 1.35.462 1.35 1.386v1.368h1.71c.696 0 1.044.342 1.044 1.026 0 .672-.348 1.008-1.044 1.008h-1.71v3.276c0 .504.114.882.342 1.134.24.252.618.378 1.134.378a2.24 2.24 0 0 0 .504-.054c.156-.036.3-.06.432-.072a.48.48 0 0 1 .414.162c.108.12.162.366.162.738 0 .3-.048.558-.144.774-.096.204-.264.354-.504.45-.156.06-.372.108-.648.144-.264.048-.492.072-.684.072zm9.061 0c-1.044 0-1.944-.186-2.7-.558a4.21 4.21 0 0 1-1.728-1.602c-.396-.696-.594-1.512-.594-2.448 0-.912.192-1.71.576-2.394a4.24 4.24 0 0 1 1.602-1.62c.684-.396 1.47-.594 2.358-.594 1.284 0 2.304.408 3.06 1.224.756.804 1.134 1.896 1.134 3.276 0 .456-.282.684-.846.684h-5.292c.096.696.348 1.206.756 1.53.42.312.996.468 1.728.468a5.97 5.97 0 0 0 .972-.09 4.11 4.11 0 0 0 1.062-.36c.348-.168.642-.198.882-.09a.81.81 0 0 1 .486.504c.096.24.096.492 0 .756-.084.252-.282.462-.594.63-.42.228-.888.396-1.404.504a6.29 6.29 0 0 1-1.458.18zm-.378-7.416c-.576 0-1.044.174-1.404.522-.348.348-.564.834-.648 1.458h3.888c-.072-1.32-.684-1.98-1.836-1.98zm8.691 7.38c-.936 0-1.404-.462-1.404-1.386v-6.39c0-.912.444-1.368 1.332-1.368s1.332.456 1.332 1.368v.324c.432-1.068 1.326-1.644 2.682-1.728.3-.024.528.054.684.234.168.168.258.45.27.846.024.372-.054.666-.234.882-.168.216-.456.348-.864.396l-.414.036c-1.344.132-2.016.816-2.016 2.052v3.348c0 .924-.456 1.386-1.368 1.386z" fill="#000"/><g clip-path="url(#A)"><path d="M51 16.646c-1.288.572-2.672.957-4.124 1.13 1.483-.888 2.622-2.295 3.157-3.972-1.387.822-2.924 1.42-4.56 1.743a7.17 7.17 0 0 0-5.241-2.268 7.19 7.19 0 0 0-6.996 8.816c-5.966-.299-11.257-3.157-14.799-7.502-1.881 3.227-.976 7.449 2.221 9.587a7.15 7.15 0 0 1-3.251-.898c-.079 3.327 2.306 6.439 5.759 7.131a7.2 7.2 0 0 1-3.243.123c.913 2.853 3.564 4.928 6.708 4.986-3.019 2.367-6.822 3.424-10.631 2.975 3.178 2.037 6.953 3.226 11.008 3.226 13.332 0 20.864-11.26 20.409-21.359A14.62 14.62 0 0 0 51 16.646h0z" fill="#000"/></g><defs><clipPath id="A"><path fill="#fff" transform="translate(16 10)" d="M0 0h35v35H0z"/></clipPath></defs></svg>
